frontend/public/svg/health/test-tube.svg

<svg width="154" height="131" viewBox="0 0 154 131" fill="none" xmlns="http://www.w3.org/2000/svg">
<g clip-path="url(#clip0)">
<path d="M48.5191 48.8546L58.955 48.2987C59.312 35.2953 59.6625 22.5498 60.0209 9.48932C59.3993 9.36658 58.4357 9.23604 57.5064 8.98138C55.4763 8.4248 54.4216 7.16792 54.4642 5.47392C54.5128 3.63617 55.7284 2.3136 58.044 2.22828C65.4479 1.95524 72.8555 1.77897 80.2669 1.69933C84.1937 1.66323 88.1239 1.9369 92.0521 2.08983C92.8344 2.12068 93.794 1.98289 94.3538 2.37538C95.3843 3.09735 96.6858 4.04375 96.9286 5.11162C97.1715 6.17948 96.3944 7.58069 95.7794 8.67612C95.4473 9.26682 94.5186 9.52942 93.7559 10.0007C94.2042 22.0878 94.6525 34.1697 95.1126 46.5824L104.937 46.0572V9.47829C104.375 9.24398 103.403 9.08967 102.818 8.52982C102.07 7.81441 101.115 6.71833 101.201 5.88413C101.459 4.73777 102.146 3.73374 103.121 3.07835C104.1 2.52664 105.207 2.24285 106.331 2.25584C114.964 1.78524 123.6 1.37833 132.236 0.970085C134.144 0.87951 136.054 0.807989 137.962 0.82571C140.506 0.849339 142.316 1.88839 142.863 3.65328C143.568 5.9288 142.641 7.57426 140.697 8.76551C140.517 8.87577 140.404 9.09355 140.566 8.90846C140.779 21.0054 140.987 32.7507 141.201 44.8254C142.382 44.8254 143.472 44.8188 144.557 44.8254C150.67 44.8667 153.512 48.0362 153.336 54.0403C152.86 70.3173 152.548 86.5945 152.161 102.872C151.983 110.28 151.767 117.689 151.565 125.097C151.574 125.658 151.522 126.218 151.409 126.766C150.995 128.399 150.194 129.706 148.285 129.774C147.488 129.857 146.688 129.631 146.053 129.141C145.418 128.651 144.995 127.936 144.872 127.143C144.509 125.618 144.3 124.06 144.248 122.492C143.981 110.93 143.607 99.3668 143.602 87.8035C143.598 77.3631 144.02 66.9228 144.249 56.4819C144.27 55.4974 144.252 54.5128 144.252 53.3518H141.514C141.336 53.687 141.21 54.0466 141.138 54.419C141.18 59.1302 141.258 63.8421 141.313 68.5538C141.445 79.6111 136.463 87.8501 126.936 90.2438C116.807 92.7903 108.315 86.4737 106.656 77.5311C105.74 72.602 105.716 67.499 105.416 62.4677C105.263 59.9112 105.389 57.3383 105.389 54.2772L95.7991 54.7944C95.7006 55.8125 95.6534 56.8348 95.6573 57.8575C95.9986 64.0238 95.9199 70.2622 96.8637 76.3353C98.1763 84.7876 92.0219 92.2351 84.6367 94.5848C77.5614 96.8347 71.1162 95.1413 65.2275 90.9309C64.1263 90.1374 63.21 89.1149 62.5416 87.9334C61.8731 86.752 61.4684 85.44 61.3551 84.0873C60.6063 77.4064 59.9224 70.7164 59.3467 64.0186C59.1387 61.5901 59.3133 59.1341 59.3133 56.6427H48.8776C48.8776 57.933 48.8388 58.9024 48.8841 59.8673C49.1939 66.4823 49.7084 73.0943 49.8029 79.7115C49.9736 91.7395 40.1823 98.2379 29.7242 96.6207C19.507 95.0403 13.648 86.9017 13.2968 79.5737C13.1209 75.8982 12.2112 72.2634 11.9729 68.5879C11.7347 64.9126 11.921 61.2141 11.921 57.2708L8.37686 56.8251C8.37686 60.3096 8.31838 63.5362 8.38664 66.7593C8.76469 84.722 9.19787 102.684 9.53457 120.645C9.55314 122.427 9.29291 124.199 8.76337 125.901C8.53786 126.669 8.05453 127.337 7.39458 127.792C6.73465 128.246 5.93834 128.459 5.13973 128.395C4.34119 128.397 3.56297 128.144 2.91929 127.671C2.27562 127.199 1.80048 126.532 1.564 125.769C1.06967 124.401 0.81126 122.958 0.7995 121.503C0.905388 99.4942 1.05513 77.4839 1.24897 55.4718C1.26258 54.3525 1.4461 53.2418 1.79314 52.1776C2.46063 50.1384 3.39267 49.7104 5.59993 49.8253C7.58997 49.929 9.59036 49.8469 11.9145 49.8469C12.3207 36.961 12.7225 24.2288 13.1353 11.1479C12.5485 10.9294 11.4387 10.8087 10.7909 10.197C10.0643 9.51111 9.31542 8.34539 9.38959 7.45605C9.5007 6.94555 9.7253 6.46672 10.0469 6.05494C10.3684 5.64316 10.7787 5.30902 11.2471 5.07749C12.5262 4.65593 13.8707 4.46809 15.2165 4.5229C24.7553 4.19517 34.2957 3.90032 43.8375 3.63822C44.9537 3.5852 46.0692 3.75477 47.1192 4.13705C49.6409 5.14846 50.2697 7.49871 48.4601 9.52876C48.0245 9.94468 47.6809 10.4475 47.4517 11.0045C47.2225 11.5616 47.1128 12.1604 47.1297 12.7625C47.4782 24.2045 47.7861 35.6477 48.1247 47.089C48.2106 47.6868 48.3423 48.277 48.5191 48.8546ZM111.844 9.3102C112.74 26.0468 113.616 42.3707 114.486 58.6636L132.936 56.8836C132.302 40.741 134.268 25.0978 133.53 9.3102H111.844ZM67.3213 36.1269C67.5549 40.909 67.8634 45.3563 67.9671 49.8076C68.0898 55.0656 67.9612 60.3294 68.0852 65.5873C68.1614 68.836 68.8728 72.1065 68.6366 75.3173C68.3241 79.508 70.4743 81.8702 73.6903 83.6252C80.0496 87.1038 88.0897 82.3874 87.7439 75.7006C87.31 67.3185 87.8095 58.8926 87.6782 50.4888C87.5988 45.2729 88.1377 39.9875 86.7593 34.8024L67.3213 36.1269ZM20.3832 44.9566C20.3004 45.3619 20.2411 45.7718 20.2054 46.184C20.1351 56.6106 20.0446 67.037 20.0209 77.4635C20.0072 83.5491 23.3303 87.3532 29.6094 88.6213C36.6559 90.0416 41.7517 86.095 41.7044 78.9843C41.6336 67.8961 41.371 56.8088 41.1708 45.7213C41.1081 45.0151 41.0011 44.3137 40.8506 43.621L20.3832 44.9566ZM19.87 39.106L40.7573 37.3727C40.989 28.434 41.2108 19.8752 41.43 11.3973H18.9537C19.2616 20.7206 19.5563 29.6376 19.87 39.106ZM67.6612 9.49273V30.5473L86.9576 28.2797C86.7331 21.8955 87.4918 15.7824 86.355 9.49273H67.6612ZM115.296 65.5078C115.296 68.7861 115.083 71.5834 115.345 74.3354C115.745 78.5327 118.208 81.4659 121.546 82.2673C124.526 82.9827 128.298 81.4429 130.265 78.4559C132.983 74.3328 133.23 69.7529 132.584 64.7669L115.296 65.5078Z" fill="black"/>
</g>
<defs>
<clipPath id="clip0">
<rect width="152.927" height="129.955" fill="white" transform="translate(0.733887 0.168701)"/>
</clipPath>
</defs>
</svg>

<svg xmlns="http://www.w3.org/2000/svg" width="154" height="131" fill="none" viewBox="0 0 154 131"><g clip-path="url(#a)"><path fill="#000" d="m48.52 48.855 10.435-.556 1.066-38.81c-.622-.122-1.585-.253-2.515-.508-2.03-.556-3.084-1.813-3.042-3.507.049-1.838 1.264-3.16 3.58-3.246q11.106-.41 22.223-.529c3.927-.036 7.857.238 11.785.39.782.032 1.742-.106 2.302.286 1.03.722 2.332 1.669 2.575 2.737.242 1.067-.535 2.469-1.15 3.564-.332.59-1.26.853-2.023 1.325l1.357 36.581 9.824-.525V9.478c-.562-.234-1.534-.388-2.119-.948-.748-.716-1.703-1.812-1.617-2.646a4.6 4.6 0 0 1 1.92-2.806 6.4 6.4 0 0 1 3.21-.822c8.633-.47 17.269-.878 25.905-1.286 1.908-.09 3.818-.162 5.726-.144 2.544.023 4.354 1.062 4.901 2.827.705 2.276-.222 3.921-2.166 5.113-.18.11-.293.328-.131.142l.635 35.917c1.181 0 2.271-.006 3.356 0 6.113.042 8.955 3.211 8.779 9.215-.476 16.277-.788 32.554-1.175 48.832-.178 7.408-.394 14.817-.596 22.225a7.7 7.7 0 0 1-.156 1.669c-.414 1.633-1.215 2.94-3.124 3.008a3.125 3.125 0 0 1-3.413-2.631 23.4 23.4 0 0 1-.624-4.651c-.267-11.562-.641-23.125-.646-34.689-.004-10.44.418-20.88.647-31.321.021-.985.003-1.97.003-3.13h-2.738a3.8 3.8 0 0 0-.376 1.067c.042 4.711.12 9.423.175 14.135.132 11.057-4.85 19.296-14.377 21.69-10.129 2.546-18.621-3.77-20.28-12.713-.916-4.929-.94-10.032-1.24-15.063-.153-2.557-.027-5.13-.027-8.19l-9.59.516a31 31 0 0 0-.142 3.064c.342 6.166.263 12.404 1.207 18.477 1.312 8.453-4.842 15.9-12.227 18.25-7.076 2.25-13.52.556-19.41-3.654a9.4 9.4 0 0 1-3.872-6.844 780 780 0 0 1-2.008-20.068c-.208-2.429-.034-4.885-.034-7.376H48.878c0 1.29-.04 2.26.006 3.224.31 6.615.824 13.227.919 19.845.17 12.028-9.62 18.526-20.079 16.909-10.217-1.58-16.076-9.72-16.427-17.047-.176-3.676-1.086-7.31-1.324-10.986-.238-3.675-.052-7.374-.052-11.317l-3.544-.446c0 3.485-.059 6.711.01 9.934.378 17.963.81 35.925 1.148 53.886a17.1 17.1 0 0 1-.772 5.256 3.49 3.49 0 0 1-3.624 2.494 3.73 3.73 0 0 1-3.575-2.626 12.9 12.9 0 0 1-.765-4.266q.159-33.014.45-66.031c.014-1.12.197-2.23.544-3.294.668-2.04 1.6-2.468 3.807-2.353 1.99.104 3.99.022 6.315.022l1.22-38.7c-.586-.218-1.696-.338-2.344-.95-.727-.686-1.476-1.852-1.401-2.74a3.48 3.48 0 0 1 1.857-2.38 11.2 11.2 0 0 1 3.97-.554q14.308-.492 28.62-.885a8.4 8.4 0 0 1 3.282.5c2.522 1.01 3.15 3.36 1.341 5.39a4.3 4.3 0 0 0-1.33 3.234c.348 11.442.656 22.886.995 34.327q.129.898.394 1.766M111.843 9.31c.896 16.737 1.772 33.06 2.642 49.354l18.45-1.78c-.634-16.143 1.332-31.786.594-47.574zM67.321 36.127c.234 4.782.542 9.23.646 13.68.123 5.259-.006 10.522.118 15.78.076 3.249.788 6.52.552 9.73-.313 4.191 1.837 6.553 5.053 8.308 6.36 3.479 14.4-1.238 14.054-7.924-.434-8.382.066-16.808-.066-25.212-.08-5.216.46-10.501-.919-15.687zm-46.938 8.83a11 11 0 0 0-.178 1.227c-.07 10.427-.16 20.853-.184 31.28-.014 6.085 3.31 9.89 9.588 11.157 7.047 1.42 12.143-2.526 12.095-9.637-.07-11.088-.333-22.175-.533-33.263a17 17 0 0 0-.32-2.1zm-.513-5.851 20.887-1.733.673-25.976H18.954zM67.661 9.493v21.054l19.297-2.267c-.225-6.385.534-12.498-.603-18.787zm47.635 56.015c0 3.278-.213 6.075.049 8.827.4 4.198 2.863 7.13 6.201 7.932 2.98.716 6.752-.824 8.719-3.811 2.718-4.123 2.965-8.703 2.319-13.69z"/></g><defs><clipPath id="a"><path fill="#fff" d="M.734.169H153.66v129.955H.734z"/></clipPath></defs></svg>
